packages/astro-components-stencil/src/icons/network-check.svg

<svg width="24" height="24" viewBox="0 0 24 24" fill="none" xmlns="http://www.w3.org/2000/svg">
<path fill-rule="evenodd" clip-rule="evenodd" d="M2.05999 10.0601C2.56999 10.5701 3.38999 10.6101 3.94999 10.1501C6.70999 7.89007 10.19 6.97007 13.53 7.39007L14.72 4.71007C10.37 3.93007 5.75999 5.01007 2.14999 7.96007C1.50999 8.49007 1.46999 9.47007 2.05999 10.0601ZM15.9 5.00007C15.73 5.00007 15.58 5.09007 15.49 5.23007L15.42 5.38007L10.24 17.0301C10.08 17.3201 9.97999 17.6401 9.97999 17.9901C9.97999 19.1001 10.88 20.0001 11.99 20.0001C12.95 20.0001 13.76 19.3201 13.95 18.4101L13.96 18.3801L16.4 5.50007C16.4 5.22007 16.18 5.00007 15.9 5.00007ZM21.84 7.96007C22.49 8.49007 22.53 9.47007 21.94 10.0601C21.43 10.5701 20.62 10.6001 20.04 10.1401C19.06 9.34007 18 8.72007 16.87 8.25007L17.4 5.43007C18.98 6.01007 20.48 6.85007 21.84 7.96007ZM17.91 14.0901C18.51 13.4901 18.47 12.4601 17.77 11.9701C17.31 11.6401 16.83 11.3601 16.33 11.1101L15.78 14.0301C15.89 14.1001 16 14.1701 16.1 14.2501C16.67 14.6501 17.43 14.5701 17.91 14.0901ZM7.92999 14.2101C7.34999 14.6201 6.57999 14.5801 6.07999 14.0801C5.47999 13.4801 5.52999 12.4601 6.21999 11.9501C8.02999 10.6501 10.18 10.0501 12.31 10.1101L11.03 12.9901C9.93999 13.1501 8.86999 13.5501 7.92999 14.2101Z" fill="black"/>
</svg>

<svg xmlns="http://www.w3.org/2000/svg" viewBox="0 0 24 24"><g xmlns="http://www.w3.org/2000/svg" id="network-check" fill-rule="nonzero">
            <path d="M15.9 5c-.17 0-.32.09-.41.23l-.07.15-5.18 11.65c-.16.29-.26.61-.26.96 0 1.11.9 2.01 2.01 2.01.96 0 1.77-.68 1.96-1.59l.01-.03L16.4 5.5c0-.28-.22-.5-.5-.5zM2.06 10.06c.51.51 1.33.55 1.89.09 2.76-2.26 6.24-3.18 9.58-2.76l1.19-2.68c-4.35-.78-8.96.3-12.57 3.25-.64.53-.68 1.51-.09 2.1zm19.88 0c.59-.59.55-1.57-.1-2.1a15.393 15.393 0 00-4.44-2.53l-.53 2.82c1.13.47 2.19 1.09 3.17 1.89.58.46 1.39.43 1.9-.08zm-4.03 4.03c.6-.6.56-1.63-.14-2.12-.46-.33-.94-.61-1.44-.86l-.55 2.92c.11.07.22.14.32.22.57.4 1.33.32 1.81-.16zm-11.83-.01c.5.5 1.27.54 1.85.13.94-.66 2.01-1.06 3.1-1.22l1.28-2.88c-2.13-.06-4.28.54-6.09 1.84-.69.51-.74 1.53-.14 2.13z"/>
        </g></svg>
